packages/core/src/svgs/tokens/mono/VAI.svg

<svg width="24" height="24" viewBox="0 0 24 24" fill="none" xmlns="http://www.w3.org/2000/svg">
<path d="M7.02467 4.86958L11.3399 9.08987C11.3777 9.12709 11.4078 9.17143 11.4282 9.22043C11.4488 9.26932 11.4593 9.32182 11.4593 9.37491C11.4593 9.42788 11.4488 9.4805 11.4282 9.52938C11.4078 9.57827 11.3777 9.62272 11.3399 9.65994L7.01967 13.8902C6.9413 13.9663 6.83637 14.0088 6.72715 14.0088C6.61793 14.0088 6.51301 13.9663 6.43464 13.8902L2.11933 9.66496C2.08154 9.62774 2.05152 9.58329 2.03104 9.5344C2.01055 9.4854 2 9.43289 2 9.37992C2 9.32684 2.01055 9.27433 2.03104 9.22545C2.05152 9.17644 2.08154 9.13211 2.11933 9.09489L6.43963 4.86958C6.51801 4.79352 6.62294 4.75098 6.73214 4.75098C6.84136 4.75098 6.94629 4.79352 7.02467 4.86958ZM12.295 10.11L16.6103 14.3352C16.6481 14.3724 16.6781 14.4168 16.6987 14.4658C16.7191 14.5147 16.7297 14.5672 16.7297 14.6202C16.7297 14.6733 16.7191 14.7258 16.6987 14.7747C16.6781 14.8237 16.6481 14.8681 16.6103 14.9053L12.29 19.1305C12.2116 19.2066 12.1067 19.2492 11.9975 19.2492C11.8883 19.2492 11.7834 19.2066 11.705 19.1305L7.3897 14.9103C7.3519 14.8731 7.32188 14.8286 7.3014 14.7797C7.28091 14.7309 7.27035 14.6782 7.27035 14.6253C7.27035 14.5722 7.28091 14.5197 7.3014 14.4708C7.32188 14.4218 7.3519 14.3774 7.3897 14.3402L11.71 10.11C11.7884 10.0339 11.8933 9.9913 12.0025 9.9913C12.1117 9.9913 12.2166 10.0339 12.295 10.11ZM17.5654 4.86958L21.8806 9.08987C21.9184 9.12709 21.9484 9.17143 21.969 9.22043C21.9895 9.26932 22 9.32182 22 9.37491C22 9.42788 21.9895 9.4805 21.969 9.52938C21.9484 9.57827 21.9184 9.62272 21.8806 9.65994L17.5604 13.8902C17.482 13.9663 17.3771 14.0088 17.2679 14.0088C17.1586 14.0088 17.0537 13.9663 16.9753 13.8902L12.6601 9.66496C12.6223 9.62774 12.5922 9.58329 12.5718 9.5344C12.5512 9.4854 12.5407 9.43289 12.5407 9.37992C12.5407 9.32684 12.5512 9.27433 12.5718 9.22545C12.5922 9.17644 12.6223 9.13211 12.6601 9.09489L16.9803 4.86958C17.0587 4.79352 17.1636 4.75098 17.2728 4.75098C17.382 4.75098 17.487 4.79352 17.5654 4.86958Z" fill="white"/>
</svg>

<svg xmlns="http://www.w3.org/2000/svg" width="24" height="24" fill="none" viewBox="0 0 24 24">
    <path fill="#fff" d="m7.025 4.87 4.315 4.22a.4.4 0 0 1 0 .57l-4.32 4.23a.42.42 0 0 1-.585 0L2.119 9.665a.4.4 0 0 1 0-.57L6.44 4.87a.42.42 0 0 1 .586 0m5.27 5.24 4.315 4.225a.4.4 0 0 1 0 .57l-4.32 4.226a.42.42 0 0 1-.585 0L7.39 14.91a.4.4 0 0 1 0-.57l4.32-4.231a.42.42 0 0 1 .585 0m5.27-5.24 4.316 4.22a.4.4 0 0 1 0 .57l-4.32 4.23a.42.42 0 0 1-.586 0L12.66 9.665a.4.4 0 0 1 0-.57l4.32-4.225a.42.42 0 0 1 .585 0"/>
</svg>
